!!!id: BC042
!!!page: 54
!!!COM: Chanson franĂ§aise du XVe siĂ¨cle.
!!!PTL@@FR: Les 100 plus belles chansons
!!!OTL@@FR: Margoton
!!!PUB: La Bonne Chanson, inc.
!!!YEM: On ne peut reproduire, enregistrer ou diffuser en tout ou en partie le prĂ©sent ouvrage, sous quelque procĂ©dĂ© que ce soit, Ă©lectronique, mĂ©canique, photographique, sonore, magnĂ©tique ou autre, sans avoir obtenu au prĂ©alable l'autorisation Ă©crite de l'Ă©ditrice.
!!!PDT: 2011
!!!SMA: 2012 BibliothĂ¨que nationale du QuĂ©bec; BiblothĂ¨que nationale du Canada
!!!AGN-Laforte: Chanson en laisse?, 9:2(6+6)+R1(9)
!!!AGN-type:
!!!AGN-rime: monorime (aa)
**kern	**text	**text	**text	**text	**text	**text	**text	**text	**text
*clefG2	*	*	*	*	*	*	*	*	*
*k[f#]	*	*	*	*	*	*	*	*	*
*D:	*	*	*	*	*	*	*	*	*
!!!OMD:Allegretto
*M2/4	*	*	*	*	*	*	*	*	*
*	*vv:1	*vv:2	*vv:3	*vv:4	*vv:5	*vv:6	*vv:7	*vv:8	*vv:9
*	*pline:1	*pline:2r	*pline:3r	*pline:4r	*pline:5r	*pline:6r	*pline:7r	*pline:8r	*pline:9r
{{8e	Mar-	La	Par	"Que	"Ti-	Quand	"C'e	"C'est	"Mon
8e	-go-	fon-	lĂ 	donn'-	-rez	la	n'est	vo-	pe-
8b	-ton	-taine	pas-	-rez-	d'a-	bell'	point	-tre	-tit
=1	=1	=1	=1	=1	=1	=1	=1	=1	=1
4g	va-	Ă©-	-si-	-vous,	-bord,	fut	Ă§a,	coeur	coeur,
4a	-t'Ă -	-tait	-rent	la	dit-	ti-	la	en	Mes-
=2	=2	=2	=2	=2	=2	=2	=2	=2	=2
8.b}	-l'iau	creus[e],	trois	bell',	-elle,	-rĂ©e,	bell',	gage,	-sir',
{16e	a-	ell[e]	jeu-	nous	a-	com-	que	sa-	n'est
8e	-vec-	est	-ne	vous	-prĂ¨s	-men-	nous	-voir	pas
8b	-que	tom-	et	re-	Ă§a,	-ce	vous	si	pour
=3	=3	=3	=3	=3	=3	=3	=3	=3	=3
4g	son	-bĂ©e	beau	-ti-	nous	un	de-	nous	un
4a	cru-	au	gar-	-re-	ver-	chan-	-man-	l'au-	ba-
!!LO:PB:g=original
=4	=4	=4	=4	=4	=4	=4	=4	=4	=4
8b}	-chon,	fond,	-Ă§ons,	-rons?"	-rons!"	-son,	-dons!"	-rons..."	-ron,
*	*rp:É”̀ƒ	*rp:É”̀ƒ	*rp:É”̀ƒ	*rp:É”̀ƒ	*rp:É”̀ƒ	*rpÉ”̀ƒ:	*rp:É”̀ƒ	*rp:É”̀ƒ	*rp:É”̀ƒ
*	*rf:É”̀ƒ	*rf:É”̀ƒ	*rf:É”̀ƒ	*rf:É”̀ƒ	*rf:É”̀ƒ	*rf:É”̀ƒ	*rf:É”̀ƒ	*rf:É”̀ƒ	*rf:É”̀ƒ
*	*rs:a	*rs:a	*rs:a	*rs:a	*rs:a	*rs:a	*rs:a	*rs:a	*rs:a
*	*pline:1r	*pline:2r	*pline:3r	*pline:4r	*pline:5r	*pline:6r	*pline:7r	*pline:8r	*pline:9r
{8e	Mar-	La	Par	Que	"Ti-	Quand	"C'e	"C'est	Mon
8e	-go-	fon-	lĂ 	donn'-	-rez	la	n'est	vo-	pe-
8b	-ton	-taine	pas-	-rez-	d'a-	bell'	point	-tre	-tit
=5	=5	=5	=5	=5	=5	=5	=5	=5	=5
4g	va-	Ă©-	-si-	-vous,	-bord,	fut	Ă§a,	coeur	coeur,
4a	t'Ă 	-tait	-rent	la	dit-	ti-	la	en	Mes-
=6	=6	=6	=6	=6	=6	=6	=6	=6	=6
8.b}	l'iau	creus[e],	trois	bell',	-elle,	-rĂ©e,	bell',	gage,	-sir,
{16e	a-	ell[e]	jeu-	nous	a-	com-	que	sa-	n'est
8e	-vec-	est	-ne	vous	-prĂ¨s	-men-	nous	-voir	pas
8b	-que	tom-	et	re-	Ă§a,	-ce	vous	si	pour
=7	=7	=7	=7	=7	=7	=7	=7	=7	=7
4g	son	-bĂ©e	beau	-ti-	nous	un	de-	nous	un
4a	cru-	au	gar-	-re-	ver-	chan-	-man-	l'au-	ba-
!!LO:PB:g=original
=8	=8	=8	=8	=8	=8	=8	=8	=8	=8
8b}}	-chon;	fond;	-Ă§ons:	-rons?"	-rons!"	-son.	-dons!	-rons..."	-ron,
*	*pline:2	*pline:3	*pline:4	*pline:5	*pline:6	*pline:7	*pline:8	*pline:9	*pline:10
{{8e	La	Par	"Que	"Ti-	Quand	"C'e	C'est	"Mon	Ma
8e	fon-	lĂ 	donn'-	-rez	la	n'est	vo-	pe-	mĂ¨-
8e	-tain[e]	pas-	-rez-	d'a-	bell'	point	-tre	-tit	-re
=9	=9	=9	=9	=9	=9	=9	=9	=9	=9
4.d#	Ă©-	-si-	-vous,	-bord,	fut	Ă§a,	coeur	coeur,	me
8e	-tait	-rent	la	dit-	ti-	la	en	Mes-	le
=10	=10	=10	=10	=10	=10	=10	=10	=10	=10
8.f#	creus[e],	trois	bell',	-elle,	-rĂ©e,	bell',	gage,	-sir',	gard'
16e	ell[e]	jeu-	nous	a-	com-	que	sa-	n'est	pour
8f#	est	-ne	vous	-prĂ¨s	-men-	nous	-voir	pas	mon
8g	tom-	et	re-	Ă§a,	-ce	vous	si	pour	jo-
=11	=11	=11	=11	=11	=11	=11	=11	=11	=11
4a	-bĂ©e	beau	-ti-	nous	un	de-	nous	un	-li
4g	au	gar-	-re-	ver-	chan-	-man-	l'au-	ba-	mi-
!!LO:PB:g=original
=12	=12	=12	=12	=12	=12	=12	=12	=12	=12
4f#}	fond.	-Ă§ons.	-rons?"	-rons!"	-son.	-dons!"	-rons..."	-ron."	-gnon."
*	*rp:É”̀ƒ	*rp:É”̀ƒ	*rp:É”̀ƒ	*rp:É”̀ƒ	*rp:É”̀ƒ	*rpÉ”̀ƒ:	*rp:É”̀ƒ	*rp:É”̀ƒ	*rp:É”̀ƒ
*	*rf:É”̀ƒ	*rf:É”̀ƒ	*rf:É”̀ƒ	*rf:É”̀ƒ	*rf:É”̀ƒ	*rf:É”̀ƒ	*rf:É”̀ƒ	*rf:É”̀ƒ	*rf:É”̀ƒ
*	*rs:a	*rs:a	*rs:a	*rs:a	*rs:a	*rs:a	*rs:a	*rs:a	*rs:a
=||	=||	=||	=||	=||	=||	=||	=||	=||	=||
*	*refrain	*	*	*	*	*	*	*	*
{4e	AĂ¯e!	.	.	.	.	.	.	.	.
=13	=13	=13	=13	=13	=13	=13	=13	=13	=13
*	*bis	*	*	*	*	*	*	*	*
4b	AĂ¯e!	.	.	.	.	.	.	.	.
4ee	AĂ¯e!	.	.	.	.	.	.	.	.
=14	=14	=14	=14	=14	=14	=14	=14	=14	=14
4b	AĂ¯e!	.	.	.	.	.	.	.	.
*	*Xbis	*	*	*	*	*	*	*	*
8a	se	.	.	.	.	.	.	.	.
8b	dit	.	.	.	.	.	.	.	.
=15	=15	=15	=15	=15	=15	=15	=15	=15	=15
4g	Mar-	.	.	.	.	.	.	.	.
4f#	-go-	.	.	.	.	.	.	.	.
=16	=16	=16	=16	=16	=16	=16	=16	=16	=16
8e;}}	-ton.	.	.	.	.	.	.	.	.
*	*rp:É”̀ƒ	*	*	*	*	*	*	*	*
*	*rf:É”̀ƒ	*	*	*	*	*	*	*	*
*	*rs:a	*	*	*	*	*	*	*	*
*	*Xrefrain	*	*	*	*	*	*	*	*
==	==	==	==	==	==	==	==	==	==
*-	*-	*-	*-	*-	*-	*-	*-	*-	*-
!!!EED: Isaac Howie
!!!EEV: 2025/June/10
